X: 3
T: I'll Tell Me Ma
R: polka
M: 2/4
L: 1/8
K: Gmaj
|:DGB2 | cBB2 | BAA3/2B1/2 | AGG3/2E1/2 |
DGB2 | cBB2 | BAA3/2B1/2 | AGG2 :|
|:d2dB | cccA | B2BG | AFD2 |
d2dB | ccc2 | BGAF | GGG2 :|


Tune 2434	Setting 2434

